APlayer/src/assets/lrc.svg

<svg xmlns="http://www.w3.org/2000/svg" version="1.1" viewBox="0 0 32 32">
    <path d="M26.667 5.333h-21.333c-0 0-0.001 0-0.001 0-1.472 0-2.666 1.194-2.666 2.666 0 0 0 0.001 0 0.001v-0 16c0 0 0 0.001 0 0.001 0 1.472 1.194 2.666 2.666 2.666 0 0 0.001 0 0.001 0h21.333c0 0 0.001 0 0.001 0 1.472 0 2.666-1.194 2.666-2.666 0-0 0-0.001 0-0.001v0-16c0-0 0-0.001 0-0.001 0-1.472-1.194-2.666-2.666-2.666-0 0-0.001 0-0.001 0h0zM5.333 16h5.333v2.667h-5.333v-2.667zM18.667 24h-13.333v-2.667h13.333v2.667zM26.667 24h-5.333v-2.667h5.333v2.667zM26.667 18.667h-13.333v-2.667h13.333v2.667z"></path>
</svg>

<svg xmlns="http://www.w3.org/2000/svg" viewBox="0 0 32 32"><path d="M26.667 5.333H5.333a2.667 2.667 0 0 0-2.666 2.666V24.001a2.667 2.667 0 0 0 2.666 2.666h21.335a2.667 2.667 0 0 0 2.666-2.666V7.999a2.667 2.667 0 0 0-2.666-2.666h-.001zM5.333 16h5.333v2.667H5.333V16zm13.334 8H5.334v-2.667h13.333V24zm8 0h-5.333v-2.667h5.333V24zm0-5.333H13.334V16h13.333v2.667z"/></svg>
